X:60
T:London Clog
C:Ward Allen
R:Hornpipe
M:4/4
L:1/8
Z:abc by Bruce Osborne - bosborne@kos.net
K:D
A2 FA B2 AG|FAde f2 ef|g2 gb ag f2|efga fedB|
A2 FA B2 AG|FAde f2 ef|g2 gb agfe|d2 ff d4:|
|:g2 g2 cegb|a2 a2 adef|g2 gb ag f2|efga fedB|
A2 FA B2 AG|FAde f2 ef|g2 gb agfe|d2 ff d2 cB|
A2 FA B2 AG|FAde f2 ef|g2 gb ag f2|efga fedB|
A2 FA B2 AG|FAde f2 ef|g2 gb agfe|d2 ff d4:|
